!!!!SEGMENT: pl-wtm--r-2509_hertz-michal--muzyka-na-jubileusz-franciszka-kostrzewskiego.krn
!!!cenid: 18xx:3081
!!!COM: Hertz, Michał
!!!COM-rismID: pe41023359
!!!CDT: 1844/09/28-~1918
!!!CNT: Polish
!!!OTL: Muzyka na jubileusz Franciszka Kostrzewskiego
!!!PDT:
!!!AGN:
!!!SMS-siglum: PL-Wtm
!!!SMS-shelfmark: R 2509
!!!SMS-shelfwork: W
!!!SMS-variant:
!!!SMS-altvar:
!!!NIFC-rismSourceID: 1001083895
!!!NIFC-islandoraID:
!!!URL-pdf-islandora:
!!!URL-scan:
!!!ONB-nifc:
!!!AIN: 1 piano
!!!key: C
**kern	**kern	**dynam
*part1	*part1	*part1
*staff2	*staff1	*
*I"Fortepian	*I"Fortepian	*
*Ipiano	*Ipiano	*
*ICklav	*ICklav	*
*IGsolo	*IGsolo	*
*>[A,B,B,C]	*>[A,B,B,C]	*>[A,B,B,C]
*>A	*>A	*>A
*clefF4	*clefG2	*
*k[]	*k[]	*
*C:	*C:	*
*M3/4	*M3/4	*
=1	=1	=1
!	!LO:TX:t=P:problem=all\middle or right&colon; global	!
!	!LO:TX:t=P:problem=niektóre nuty czarnym, a niektóre fioletowym atramentem	!
!	!LO:TX:a:i:t=Allegro	!
8C 8CC/	8cc 8c/	f
8r	8r	.
4r	[2G/	sf
8r	.	.
(8B (8F\	.	.
=2	=2	=2
8cL 8E\))	(2.G/]	.
8GG\J	.	.
4r	.	.
4r	.	.
=3	=3	=3
2.r;<	2.F#X;/)	.
=4	=4	=4
*^	*	*
*2\right	*	*	*
!	!	!LO:TX:a:i:t=Meno mosso	!
[2.Fn\	4r	8b-XL 8d'\	pp
.	.	8ccJ 8f'\	.
.	4r	4.dd 4.b-\	.
.	8FF/	.	.
.	8r	8ee-X 8cc'\	.
=5	=5	=5	=5
(2.f\	4F\]	8ffL 8dd'\	.
.	.	8dd 8b-X'\	.
.	4r	8gg 8ee-X'\	.
.	.	8ffJ 8dd'\	.
.	4r	4r	.
*v	*v	*	*
=6	=6	=6
2.e\)	2.r	.
=7	=7	=7
*^	*	*
*	*^	*	*
!	!	!	!LO:TX:a:i:t=piu mosso	!LO:DY:rj
[2.e-X/	8A-XL 8C\	4rFF	8aa-XL 8cc 8a-X\	ff
.	8B-XJ 8E-X\	.	8bb-XJ 8ee-X 8b-X\	.
.	4.c 4.A-\	4rFF	4.ccc 4.aa- 4.cc\	.
.	.	8E-\	.	.
.	8d-X 8B-\	8rFF	8ddd-X 8bb- 8dd-X\	.
*v	*v	*v	*	*
=8	=8	=8
8e-X]L 8c\	8eee-XL 8ccc 8ee-X\	.
8c 8A-X\	8cccJ 8aa-X 8cc\	.
8f 8d-X\	8fffL 8ddd-X 8ff\	.
8e-J 8c\	8eee-J 8ccc 8ee-\	.
8r	4r	.
(8e-\	.	.
=9	=9	=9
2.d;\)	2.r;	.
!!LO:LB:g=original
=10	=10	=10
*^	*^	*
!	!	!LO:TX:a:i:t=Allegretto	!	!LO:DY:rj
([>2.e> 2.d>\	8r	4r	4g#X/	p
.	8E\	.	.	.
.	4r	4r	4.g#/	.
.	4r	[4ee^/	.	.
.	.	.	8b/	.
*v	*v	*	*	*
=11	=11	=11	=11
2e>] 2c#X>\)	(4ee/]	8.b\L	.
.	.	16a\Jk	.
.	8.ff#X/L)	4a\	.
.	(<16ee/K	.	.
4ryy	8bb/	4r	.
.	8aa/J)	.	.
=12	=12	=12	=12
*^	*	*	*
([>2.e-> 2.d->\	8r	4r	4gn/	.
.	8E-X\	.	.	.
.	4r	4r	4.g/	.
.	4r	[4ee-X/	.	.
.	.	.	8b-X\	.
*v	*v	*	*	*
=13	=13	=13	=13
2e->] 2c>\)	4ee-X/]	8.b-X\L	.
.	.	16a-X\Jk	.
.	8.ff/L	4a-\	.
.	(<16ee-/K	.	.
4ryy	8bb-X/	4r	.
.	8aa-X/J)	.	.
*	*v	*v	*
=14	=14	=14
2.r	2.r	.
=15	=15	=15
!	!LO:TX:a:i:t=a Tempo	!
8D-X 8DD-X/	8ddd-X 8dd-X\	f
8r	8r	.
4r	[2A-X^/	.
8r	.	.
(8c (8G-X\	.	.
=16	=16	=16
8d-XL) 8F\)	(2.A-X/]	.
8AA-X\J	.	.
4r	.	.
4r	.	.
=17	=17	=17
2.r;<	2.G;/)	.
!!LO:LB:g=original
=18	=18	=18
*^	*	*
!	!	!LO:TX:a:i:t=Meno mosso	!LO:DY:rj
[2.F#X\	4r	8bL 8d#X'\	pp
.	.	8cc#XJ 8f#X'\	.
.	4r	4.dd#X 4.b\	.
.	8FF#X/	.	.
.	8r	8ee 8cc#X'\	.
=19	=19	=19	=19
(2.f#X/	4F#X\]	8ff#XL 8dd#X'\	.
.	.	8dd# 8b'\	.
.	4r	8gg#X 8ee'\	.
.	.	8ff#J 8dd#'\	.
.	4r	4r	.
*v	*v	*	*
=20	=20	=20
2.fn\)	2.r	.
=21	=21	=21
*^	*	*
*	*^	*	*
!	!	!	!LO:TX:a:i:t=piu mosso	!LO:DY:rj
[2.e/	8AL 8C#X\	4rFF	8aaL 8cc#X 8a\	ff
.	8BJ 8E\	.	8bbJ 8ee 8b\	.
.	4.c#X 4.A\	4rFF	4.ccc#X 4.aa 4.cc#\	.
.	.	8E\	.	.
.	8d 8B\	8rFF	8ddd 8bb 8dd\	.
*v	*v	*v	*	*
=22	=22	=22
8e]L 8c#X\	8eeeL 8ccc#X 8ee\	.
8c# 8A\	8ccc# 8aa 8cc#y\	.
!LO:SIC:v:n=1:s=8f#\	!	!
8f 8d\	8fff#X 8ddd 8ff#X\	.
8eJ 8c#\	8eeeJ 8ccc# 8ee\	.
8r	4r	.
(8e\	.	.
=23	=23	=23
2.d#X;\)	2.r;	.
=24	=24	=24
*M9/8	*M9/8	*
*^	*^	*
!	!	!LO:TX:a:i:t=Moderato	!	!
2.ryy	[4.dn\	8r	4.ryy	f
.	.	8r	.	.
.	.	8ee 8e\	.	.
*	*	*	*cue	*
.	8d\L]	[4.ff#X [<4.f#X\	8rg	.
!	!	!	!LO:SIC:v:n=2:s=8g#/	!
.	8B\	.	8bL 8g/	.
!	!	!	!LO:SIC:v:n=2:s=8g#/	!
.	8G#X\J	.	8bJ 8g/	.
!	!	!	!LO:SIC:v:n=2:s=8g#/	!
8r@	4.D\	4ff#] 4f#\]	8bL 8g/	.
!	!	!	!LO:SIC:v:n=2:s=8g#/	!
8BL@ 8G#/@	.	.	8bJ 8g/	.
8BJ@ 8G#/@	.	8ee 8e\	8rg	.
*v	*v	*	*	*
=25	=25	=25	=25
!	!LO:TUP:a:problem=klamra łukowa	!	!
[4.C#X/	16%3dd#XL 16%3d#X\	4.ryy	.
.	16%3eeJ 16%3e\	.	.
8C#/L]	[4.aa 4.ee [<4.a\	8rcc	.
8AA/	.	8eeL 8cc#X\	.
8EE/J	.	8eeJ 8cc#\	.
4.CC#X/	4aa] 4ee 4a\]	8eeL 8cc#\	.
.	.	8eeJ 8cc#\	.
.	8cc#X 8c#X/	8ryy	.
!!LO:LB:g=original
=26	=26	=26	=26
8r	[4.ee [<4.e\	8rg	.
8r	.	8aL 8f#X/	.
[8B 8BB\	.	8aJ 8f#/	.
4.B_ [4.BB\	4ee] 4e\]	8aL 8f#/	.
.	.	8a 8f#/	.
.	8dd#X 8d#X\	8aJ 8f#/	.
!	!LO:N:vis=4..	!	!
4B] 4BB\]	4ddn 4dn\	8aL 8f#\	.
.	.	8a 8f#\	.
8C#X/	16ryy 16ryy\	8aJ 8f#\	.
.	16cc#X 16c#X\	.	.
=27	=27	=27	=27
*^	*	*	*
!LO:N:vis=4:xstem	!	!	!	!
4.A@ 4.F@ 4.D@/	(2.D\	4.cc#X 4.c#X\	8rg	.
.	.	.	8aL 8f#X\	.
.	.	.	8aJ 8f#\	.
!LO:N:vis=4:xstem	!	!	!	!
4.A@ 4.F@ 4.D@/	.	4.b 4.B\	8rg	.
.	.	.	8aL 8f#\	.
.	.	.	8aJ 8f#\	.
!LO:N:vis=4	!	!LO:TX:t=P:rytm:problem	!	!
4.r	8DD/)	8b 8B\	8rg	.
.	8r	8ryy	8aL 8f#\	.
.	8r	8ryy	8aJ 8f#\	.
*	*	*	*Xcue	*
*v	*v	*	*	*
*	*v	*v	*
=28	=28	=28
[4.B [4.G#X [4.E [4.D\	(8bL 8B\	.
.	8cc#X 8c#X\	.
.	8ddJ 8d\	.
8B]L 8G#] 8E] 8D\]	4.ee 4.e\	.
8B 8G# 8E 8D'\	.	.
8BJ 8G# 8E 8D'\	.	.
8BL 8G# 8E 8D'\	4ff#X 4f#X\)	.
8B 8G# 8E 8D'\	.	.
8BJ 8G# 8E 8D'\	8ee 8e\	.
=29	=29	=29
[4.c [4.B-X [4.E [4.C\	(8eeL 8e\	.
.	8ffn 8fn\	.
.	8ff#XJ 8f#X\	.
8c]L 8B-] 8E] 8C\]	(4.gg (4.g\)	.
8c 8B- 8E 8C'\	.	.
8cJ 8B- 8E 8C'\	.	.
8cL 8B- 8E 8C'\	4gg#X) 4g#X\)	.
8c 8B- 8E 8C'\	.	.
8cJ 8B- 8E 8C'\	8aa 8a\	.
=30	=30	=30
*^	*	*
8r	2.F\	[4.aa [4.a\	.
8cL 8A/	.	.	.
8cJ 8A/	.	.	.
8cL 8A/	.	4aa] 4a\]	.
8c 8A/	.	.	.
8cJ 8A/	.	8aa 8a\	.
8cL 8A 8F/	4.E\	8aaL 8a\	.
8c 8A 8F/	.	8bb 8b\	.
8cJ 8A 8F/	.	8cccJ 8cc\	.
=31	=31	=31	=31
8r	[2.D\	[4.ccc [4.cc\	.
8dL 8A 8F/	.	.	.
8dJ 8A 8F/	.	.	.
8dL 8A 8F/	.	4ccc] 4cc\]	.
8d 8A 8F/	.	.	.
8dJ 8A 8F/	.	8dd 8d\	.
8dL 8A 8F/	4.D\]	(8ddL 8d\	.
8d 8A 8F/	.	8ee 8e\	.
8dJ 8A 8F/	.	8ffJ 8f\)	.
=32	=32	=32	=32
*	*	*2\right	*
!	!	!LO:TX:t=P:rytm:problem	!
8r	4.GG\	[2.ff [2.f\	.
8BL 8G 8D/	.	.	.
8BJ 8G 8D/	.	.	.
8r	4.C#X\	.	.
8BL 8G/	.	.	.
8BJ 8G/	.	.	.
8r	4.D\	4.ffyy_ 4.fyy\_	.
8BL 8G/	.	.	.
8BJ 8G/	.	.	.
=33	=33	=33	=33
8r	4.A\	4.ff_ 4.f\_	.
8BL 8D\	.	.	.
8BJ 8D\	.	.	.
4B 4G\	2ryy	(8ff]L 8f\]	.
.	.	8eeJ 8e\)	.
8r	.	8r	.
4r	.	4r	.
.	4ryy	.	.
8r	.	8ee 8e\	.
*v	*v	*	*
!!LO:LB:g=original
=34||	=34||	=34||
*M3/4	*M3/4	*
*	*^	*
!	!LO:TX:a:i:t=Tempo di Mazurka con grazia	!	!
8C/	4.ee/	8.r	p
8r	.	.	.
.	.	16f#X\	.
(4e [<4c (4G\	.	8g\	.
.	8dd/	8r	.
8f) 8c] 8A-X\)	8cc/L	4r	.
8r	8a-X/J	.	.
*	*v	*v	*
=35	=35	=35
4r	8.g/L	.
.	16e/Jk	.
4c 4E\	4.an/	.
4c 4E\	.	.
.	8g/	.
=36	=36	=36
*^	*	*
[2.A/	4D\	8f/L	.
.	.	8e/	.
.	4BB\	8d/	.
.	.	8a/	.
.	4D\	8f/	.
.	.	8e/J	.
=37	=37	=37	=37
2.A/]	4BB\	8d/L	.
.	.	8a/	.
.	4D\	8f/	.
.	.	8d/	.
.	4BB\	8e/	.
.	.	8f/J	.
*v	*v	*	*
=38	=38	=38
.	32qqe/LLL	.
.	32qqf/JJJ	.
*	*^	*
2G\	8.e/L	2B\	.
.	16d/Jk	.	.
.	4g/	.	.
4GG/	4r	4ryy	.
=39	=39	=39	=39
8C/	4.ee\	8.r	.
8r	.	.	.
.	.	16f#X\	.
(4e [<4c (4G\	.	8g\	.
.	8dd\	8r	.
8f) 8c] 8A-X\)	8cc\L	4r	.
8r	8a-X\J	.	.
=40	=40	=40	=40
4r	8.g/L	4ryy	.
.	16e/Jk	.	.
4An\	4.an/	2c#X\	.
4AA/	.	.	.
.	8g/	.	.
=41	=41	=41	=41
4D\	8f#X\L	[2.cn\	.
.	8e\	.	.
4F#X\	8d\	.	.
.	8cc\	.	.
4D\	8f#\	.	.
.	8e\J	.	.
=42	=42	=42	=42
4F#X\	8d\L	2.c\]	.
.	8cc\	.	.
4D\	8f#X\	.	.
.	8e\	.	.
4F#\	8d\	.	.
.	8cc\J	.	.
=43	=43	=43	=43
*^	*	*	*
2B/	4G\	8.b/L	2d\	.
.	.	16f#X/Jk	.	.
.	4GG\	4g/	.	.
4r	4ryy	4r	4ryy	.
*v	*v	*	*	*
!!LO:PB:g=original
=44	=44	=44	=44
4F\	8.a/L	[2.c\	p
.	16b/Jk	.	.
2E\	4.cc/	.	.
.	8g/	.	.
=45	=45	=45	=45
8.D\L	8.f/L	8.c\L]	.
16G\Jk	16g/Jk	16B\Jk	.
4GG/	4f/	4B\	.
4C/	4e/	4c\	.
=46	=46	=46	=46
4F\	8a\L	[2.c</	.
.	8b\	.	.
.	32qqcc/LLL	.	.
.	32qqdd/JJJ	.	.
4E\	8cc\	.	.
.	8b\	.	.
4E\	8cc\	.	.
.	8g\J	.	.
*	*v	*v	*
=47	=47	=47
8.D\L	8.fL 8.c/]	.
16G\Jk	16gJk 16B/	.
4G 4GG/	4f 4B/	.
4C/	4e 4c/	.
=48	=48	=48
*	*^	*
!	!	!	!LO:DY:rj
4C'/	8.e/L	[2.G\	f
.	16f#X/Jk	.	.
2BB/	4.g/	.	.
.	8d/	.	.
=49	=49	=49	=49
8.AA\L	8.c/L	8.G\L]	.
16D\Jk	16d/Jk	16F#X\Jk	.
4DD/	4c/	4F#\	.
4GG/	4B/	4G\	.
=50	=50	=50	=50
4C/	8e/L	[2.G</	.
.	8f#X/	.	.
.	32qqg/LLL	.	.
.	32qqa/JJJ	.	.
4BB/	8g/	.	.
.	8f#/	.	.
4BB/	8g/	.	.
.	8d/J	.	.
*	*v	*v	*
=51	=51	=51
8.AA\L	8.cL 8.G/]	.
16D\Jk	16dJk 16F#X/	.
4D 4DD/	4c 4F#/	.
4GG/	4B 4G/	.
!!LO:LB:g=original
=52	=52	=52
8qA/	.	.
2.G\	2.r	p
=53	=53	=53
.	8qa/	.
2.r	2.g;/	pp
=54	=54	=54
*	*^	*
8C/	4.ee\	8.r	p
8r	.	.	.
.	.	16f#X/	.
(4e [<4c (4G\	.	8g\	.
.	8dd\	8r	.
8f) 8c] 8A-X\)	8cc\L	4r	.
8r	8a-X\J	.	.
*	*v	*v	*
=55	=55	=55
4r	8.g/L	.
.	16e/Jk	.
4c 4E\	4.a/	.
4c 4E\	.	.
.	(8g/	.
=56	=56	=56
*^	*	*
[2.A/	4D\	8f/L)	.
.	.	8e'/	.
.	4BB\	8d'/	.
.	.	8a'/	.
.	4D\	8f'/	.
.	.	8e'/J	.
=57	=57	=57	=57
2.A/]	4BB\	8d'/L	.
.	.	8a'/	.
.	4D\	8f'/	.
.	.	8e'/	.
.	4BB\	8d'/	.
.	.	8f'/J	.
=58	=58	=58	=58
.	.	32qqe/LLL	.
.	.	32qqf/JJJ	.
2B>\	2G\	(<8.e/L	.
.	.	16d/Jk	.
.	.	4g/)	.
4GG/	4ryy	4r	.
*v	*v	*	*
=59	=59	=59
*	*^	*
8C/	4.ee\	8r	.
8r	.	16r	.
.	.	16f#X/	.
(4e [4c (4G\	.	8g\	.
.	8dd\	8r	.
!	!LO:TX:b:t=accelle-rando:dur=8q:ext=cd:problem=text with extention lines	!	!
8f) 8c] 8A-X\)	8cc\L	4r	.
8r	8a-X\J	.	.
*	*v	*v	*
=60	=60	=60
*^	*	*
4.e\	8r	4g/	.
.	16r	.	.
.	16F#X\	.	.
.	8G\	4r	.
8d\	8r	.	.
8c\L	4r	4r	.
8A-X\J	.	.	.
*v	*v	*	*
!!LO:LB:g=original
=61	=61	=61
*	*^	*
8C/	(4.ee-X 4.g 4.e-X/	8r	.
8r	.	16r	.
.	.	(>16f#X\	.
(4e-X [<4c (4G\	.	8g\)	.
.	8dd\	8r	.
8f) 8c] 8A-X\)	8cc\L	4r	.
8r	8a-X\J	.	.
*	*v	*v	*
=62	=62	=62
*^	*	*
(4.e-X\	8r	4g/)	.
.	16r	.	.
!	!LO:N:vis=8	!	!
.	16F#X\	.	.
.	8G\	4r	.
8d\	8r	.	.
8c\L	4r	4r	.
8A-X\J)	.	.	.
*v	*v	*	*
=63	=63	=63
!	!LO:TX:b:t=ri-te-nu-to:dur=4q:ext=cd:problem=text with extention lines	!
(8F#X\L	2.r	.
8G\J)	.	.
8r	.	.
(8d\	.	.
8c\L	.	.
8B-X\J	.	.
=64	=64	=64
8F#X\L	2.r;	.
8G\J)	.	.
4r;	.	.
8r	.	.
!	!LO:TX:a:i:t=Allegro	!
[8F#X\	.	.
=65	=65	=65
4F#X\]	(8bL 8d#X\	f
!	!LO:SIC:v:n=2:s=8f#\	!
.	8cc#XJ 8f\	.
4r	4.dd#X 4.b\	.
[4f#X\	.	.
.	8ee 8cc#X\	.
=66	=66	=66
!LO:N:vis=2	!	!
2.f#X;\]	8ff#XL 8dd#X\	.
.	8dd# 8b\	.
.	8gg#X 8ee\	.
.	8ff#J 8dd#\)	.
.	4r;	.
=67	=67	=67
*	*^	*
!	!LO:TX:b:t=ri-te-nu-to:dur=5q:ext=cd:problem=text with extention lines	!	!LO:DY:rj
(2.fn\	[2.gg/	(>8dd\L	p
.	.	8b\	.
.	.	8ee\	.
.	.	8dd\J)	.
.	.	4r	.
=68	=68	=68	=68
4e\)	8gg/L]	4cc\	.
.	8ee/	.	.
4r	8aa/	4r	.
.	8gg/J	.	.
4r;	4r;	4ryy	.
*	*v	*v	*
!!LO:LB:g=original
=69	=69	=69
*	*tremolo	*
*	*2\right	*
!	!LO:TX:a:i:t=Presto	!
(4.B\	(32ddLLL 32a\	.
.	32f\	.
.	32dd 32a\	.
.	32f\	.
.	32dd 32a\	.
.	32f\	.
.	32dd 32a\	.
.	32f\	.
.	32dd 32a\	.
.	32f\	.
.	32dd 32a\	.
.	32f\	.
8c\	32dd 32a\	.
.	32f\	.
.	32dd 32a\	.
.	32f\	.
4B\	32dd 32a\	.
.	32f\	.
.	32dd 32a\	.
.	32f\	.
.	32dd 32a\	.
.	32f\	.
.	32dd 32a\	.
.	32f\JJJ)	.
=70	=70	=70
8a\)	(32ffLLL 32dd\	.
.	32a\	.
.	32ff 32dd\	.
.	32a\	.
8r	32ff 32dd\	.
.	32a\	.
.	32ff 32dd\	.
.	32a\	.
2BB^>/	32ff 32dd\	.
.	32a\	.
.	32ff 32dd\	.
.	32a\	.
.	32ff 32dd\	.
.	32a\	.
.	32ff 32dd\	.
.	32a\	.
.	32ff 32dd\	.
.	32a\	.
.	32ff 32dd\	.
.	32a\	.
.	32ff 32dd\	.
.	32a\	.
.	32ff 32dd\	.
.	32a\JJJ)	.
=71	=71	=71
(4.B\	(32aaLLL 32ff\	.
.	32dd\	.
.	32aa 32ff\	.
.	32dd\	.
.	32aa 32ff\	.
.	32dd\	.
.	32aa 32ff\	.
.	32dd\	.
.	32aa 32ff\	.
.	32dd\	.
.	32aa 32ff\	.
.	32dd\	.
8c\	32aa 32ff\	.
.	32dd\	.
.	32aa 32ff\	.
.	32dd\	.
4B\	32aa 32ff\	.
.	32dd\	.
.	32aa 32ff\	.
.	32dd\	.
.	32aa 32ff\	.
.	32dd\	.
.	32aa 32ff\	.
.	32dd\JJJ)	.
=72	=72	=72
8a\)	(32dddLLL 32aa\	.
.	32ff\	.
.	32ddd 32aa\	.
.	32ff\	.
8r	32ddd 32aa\	.
.	32ff\	.
.	32ddd 32aa\	.
.	32ff\	.
2BB^>/	32ddd 32aa\	.
.	32ff\	.
.	32ddd 32aa\	.
.	32ff\	.
.	32ddd 32aa\	.
.	32ff\	.
.	32ddd 32aa\	.
.	32ff\	.
.	32ddd 32aa\	.
.	32ff\	.
.	32ddd 32aa\	.
.	32ff\	.
.	32ddd 32aa\	.
.	32ff\	.
.	32ddd 32aa\	.
.	32ff\JJJ)	.
*	*Xtremolo	*
=73	=73	=73
4f 4B 4G\	(8ggL 8g\	.
.	8aaJ 8a\	.
4f 4B 4G\	4.bb 4.b\	.
4f 4B 4G\	.	.
.	8ccc 8cc\	.
=74	=74	=74
*rep	*	*
4f 4B 4G\	8dddL 8dd\	.
.	8bb 8b\	.
4f 4B 4G\	8eee 8ee\	.
.	8dddJ 8dd\)	.
4f 4B 4G\	4r	.
*Xrep	*	*
=75	=75	=75
4e 4c 4G\	(8cc\L	.
.	8dd\J	.
4e 4c 4G\	4.ee\	.
4e 4c 4G\	.	.
.	8ff\	.
=76	=76	=76
*rep	*	*
4e 4c 4G\	8gg\L	.
.	8ee\	.
4e 4c 4G\	8aa\	.
.	8gg\J)	.
4e 4c 4G\	4r	.
*Xrep	*	*
=77	=77	=77
4e 4c#X 4G\	(8aaL 8a\	.
.	8bbJ 8b\	.
4e 4c# 4G\	4.ccc#X 4.cc#X\	.
4e 4c# 4G\	.	.
.	8ddd 8dd\)	.
!!LO:LB:g=original
=78	=78	=78
4e 4c#X 4G\	(8eeeL 8ee\	.
.	8ccc#X 8cc#X\	.
4e 4c# 4G\	8fff#X 8ff#X\	.
.	8eeeJ 8ee\)	.
4e 4c# 4G\	4r	.
=79	=79	=79
!LO:SIC:v:n=3:s=4A\	!	!
4f#X 4d 4G\	(8dd\L	.
.	8ee\J	.
!LO:SIC:v:n=3:s=4A\	!	!
4f#X 4d 4G\	4.ff#X\	.
!LO:SIC:v:n=3:s=4A\	!	!
4f# 4d 4G\	.	.
.	8gg\	.
=80	=80	=80
*rep	*	*
!LO:SIC:v:n=3:s=4A\	!	!
4f#X 4d 4G\	8aa\L	.
.	8ff#X\	.
!LO:SIC:v:n=3:s=4A\	!	!
4f#X 4d 4G\	8bb\	.
.	8aa\J)	.
!LO:SIC:v:n=3:s=4A\	!	!
4f# 4d 4G\	4r	.
*Xrep	*	*
=81	=81	=81
*^	*^	*
!	!LO:SIC:b:v:s=2.A\	!LO:TX:t=P:problem=nie uwzględniamy fragmentów wykreślonych kredką (konsultacja z E.Z.)	!	!
4f#X 4d#X/	[2.G\	(8bb\L	2b\	.
.	.	8ff#X\	.	.
4f# 4d#/	.	8ccc\	.	.
.	.	8bb\J)	.	.
4e/	.	4r	4b\	.
=82	=82	=82	=82	=82
!	!LO:SIC:b:v:s=2.A\	!	!	!
4g 4e/	2.G\_	(8ccc\L	2cc\	.
.	.	8gg\	.	.
4g 4e/	.	8ddd\	.	.
.	.	8ccc\J)	.	.
!LO:TX:a:i:t=a\nf	!	!	!	!
4a 4f/	.	4r	4cc\	.
=83	=83	=83	=83	=83
!	!LO:SIC:b:v:s=2.A\	!	!	!
4a 4f#X 4d 4c/	2.G\_	(8ddd\L	[2.dd\	.
.	.	8aa\	.	.
*rep	*	*	*	*
4a 4f# 4d 4c/	.	8eee\	.	.
.	.	8ddd\	.	.
*Xrep	*	*	*	*
*rep	*	*	*	*
4a 4f# 4d 4c/	.	8aa\	.	.
.	.	8eee\J	.	.
*Xrep	*	*	*	*
=84	=84	=84	=84	=84
*rep	*	*	*	*
!	!LO:SIC:b:v:s=2.A\	!	!	!
4a 4f#X 4d 4c/	2.G\]	8ddd\L	2.dd\]	.
.	.	8aa\	.	.
4a 4f# 4d 4c/	.	8eee\	.	.
.	.	8ddd\J)	.	.
4a 4f# 4d 4c/	.	4r	.	.
*Xrep	*	*	*	*
!!LO:PB:g=original
=85	=85	=85	=85	=85
4g 4fn 4d 4B/	[2.G\	(8ddd\L	[2.dd\	.
.	.	8bb\	.	.
*rep	*	*	*	*
4g 4f 4d 4B/	.	8eee\	.	.
.	.	8ddd\	.	.
*Xrep	*	*	*	*
*rep	*	*	*	*
4g 4f 4d 4B/	.	8bb\	.	.
.	.	8eee\J	.	.
*Xrep	*	*	*	*
=86	=86	=86	=86	=86
4g 4f 4d 4B/	2G\]	8ddd\L	2.dd\]	.
.	.	8bb\	.	.
4g 4f 4d 4B/	.	8eee\	.	.
.	.	8ddd\J)	.	.
4G 4GG/	4ryy	4g/	.	.
=87	=87	=87	=87	=87
!	!	!LO:TX:a:i:t=Prestissimo.	!	!
8C/L	8CC\	8cc/	(>8c\L	.
8D/J	2ryy	8ryy	8d\J	.
4.E\	.	4.e/	2ryy	.
8F\	8ryy	8f/	.	.
*v	*v	*	*	*
*	*v	*v	*
=88	=88	=88
8G\L	8g\L	.
8E\	8e\	.
8A\	8a\	.
8G\	8g\	.
8d\	8dd\	.
8c\J	8cc\J	.
=89	=89	=89
2.ryy	8ffL 8f\	.
.	8ee 8e\	.
.	8aa 8a\	.
.	8gg 8g\	.
.	8ddd 8dd\	.
.	8cccJ 8cc\	.
=90	=90	=90
2.ryy	8fffL 8ff\	.
.	8eeeJ 8ee\	.
.	8ggg 8gg\)	.
.	8r	.
.	4r	.
=91	=91	=91
2.r	2.r	.
!!LO:LB:g=original
=92	=92	=92
2.ryy	(8ffL 8f\	.
.	8eeJ 8e\	.
.	8gg 8g\)	.
.	4r	.
.	8r	.
=93	=93	=93
2.r	2.r	.
=94	=94	=94
*^	*	*
!	!	!LO:TX:a:i:t=Allgretto.	!
2G\	8r	4r	.
.	8GG\	.	.
!	!	!	!LO:DY:rj
.	4r	(4.dd 4.a 4.f\	ff
4ryy	4r	.	.
.	.	8ff 8cc 8a\	.
*v	*v	*	*
=95	=95	=95
[4g\	8.ffL 8.cc 8.a\	.
.	16eeJk 16cc 16g\	.
!LO:TUP:a:problem=klamra łukowa	!	!
12g\L]	4ee 4cc 4g\)	.
12f#X\	.	.
12fn\J	.	.
8e\	4ryy	.
8ryy	.	.
=96	=96	=96
*^	*	*
2d\	8r	4r	.
.	8D\	.	.
.	4r	(4.ff 4.cc 4.a\	.
[4d\	4r	.	.
.	.	8aa 8ff 8cc\	.
*v	*v	*	*
=97	=97	=97
4d\_	8.aaL 8.ff 8.b\	.
.	16ggJk 16ff 16b\	.
*Xtuplet	*	*
12d\L]	4gg 4ff 4b\)	.
12c#X\	.	.
12cn\J	.	.
8B\	4r;	.
8r;	.	.
=98	=98	=98
!	!LO:TX:a:i:t=Prestissimo.	!
4A-X 4AA-X^\	4a-X^>/	.
4G 4GG\	4g/	.
[4AA-X [4AAA-X/	[4A-X/	.
=99	=99	=99
4AA-] 4AAA-/]	4A-/]	.
4GG 4GGG\	4G/	.
[4A-X [4AA-X/	[>4a-X/	.
!!LO:LB:g=original
=100	=100	=100
4A-X] 4AA-X\]	4a-X/]	.
4G 4GG\	4g/	.
4AA-X 4AAA-X/	4A-X/	.
=101	=101	=101
4GG 4GGG/	4G/	.
4A-X 4AA-X\	4a-X/	.
4G 4GG\	4g/	.
=102	=102	=102
4AA-X 4AAA-X\	4A-X<^/	.
4GG 4GGG\	4G</	.
4A-X 4AA-X/	4a-X/	.
=103	=103	=103
4G 4GG/	4g^>/	.
4AA-X 4AAA-X\	4A-X</	.
4GG 4GGG\	4G</	.
=104	=104	=104
*	*^	*
*	*2\left	*	*
4ryy	[2.c<^\	4C<\	.
*tremolo	*	*	*
32CCC\LLL	.	4C</	.
32CC\	.	.	.
32CCC\	.	.	.
32CC\	.	.	.
32CCC\	.	.	.
32CC\	.	.	.
32CCC\	.	.	.
32CC\	.	.	.
32CCC\	.	4r	.
32CC\	.	.	.
32CCC\	.	.	.
32CC\	.	.	.
32CCC\	.	.	.
32CC\	.	.	.
32CCC\	.	.	.
32CC\JJJ	.	.	.
=105	=105	=105	=105
*	*2\right	*	*
32CCC\LLL	2.c<\]	2.r	.
32CC\	.	.	.
32CCC\	.	.	.
32CC\	.	.	.
32CCC\	.	.	.
32CC\	.	.	.
32CCC\	.	.	.
32CC\	.	.	.
32CCC\	.	.	.
32CC\	.	.	.
32CCC\	.	.	.
32CC\	.	.	.
32CCC\	.	.	.
32CC\	.	.	.
32CCC\	.	.	.
32CC\	.	.	.
32CCC\	.	.	.
32CC\	.	.	.
32CCC\	.	.	.
32CC\	.	.	.
32CCC\	.	.	.
32CC\	.	.	.
32CCC\	.	.	.
32CC\JJJ	.	.	.
*Xtremolo	*	*	*
*	*v	*v	*
=106	=106	=106
8C 8CC/	8ee 8g 8c/	.
8r	8r	.
4r	4r	.
!	!LO:TX:b:i:t=Melodram	!
4r	4r	.
!!LO:LB:g=original
=107||	=107||	=107||
*M3/4	*M3/4	*
*^	*^	*
!	!	!LO:TX:a:i:t=Sied[e]m kolorów tęczy!	!	!
!	!	!LO:TX:a:i:t=Allegretto	!	!LO:DY:rj
2.g> 2.e> 2.c>\	4r	4.gg/	2.ee 2.cc\	p
.	4C/	.	.	.
.	.	8gg/	.	.
.	4r	(4ccc/	.	.
*	*	*v	*v	*
=108	=108	=108	=108
2.a> 2.e> 2.c> 2.A>\	4r	2.ccc 2.aa 2.ee 2.cc/)	.
.	4AA/	.	.
.	4r	.	.
=109	=109	=109	=109
2f>\	2.r	[2.aa [<2.ff [<2.cc [<2.a/	.
[4e>\	.	.	.
=110	=110	=110	=110
*	*	*^	*
*	*	*	*^	*
4e>\]	2.r	2.aa] 2.ff/]	4cc/]	2.a/]	.
4e>\	.	.	4cc#X/	.	.
4d>\	.	.	4dd/	.	.
*	*	*	*v	*v	*
=111	=111	=111	=111	=111
2.a> 2.f#X> 2.d>\	4r	4.aa/	2.ff#X 2.dd\	.
.	4D\	.	.	.
.	.	8aa/	.	.
.	4r	4ddd/	.	.
*	*	*v	*v	*
=112	=112	=112	=112
2.b> 2.f#X> 2.d> 2.B>/	4r	2.ddd 2.bb 2.ff#X 2.dd/	.
.	4BB/	.	.
.	4r	.	.
*v	*v	*	*
=113	=113	=113
2b> 2g>\	[2.bb [<2.gg 2.dd/	.
4f#X>\	.	.
=114	=114	=114
*^	*^	*
2.b>\	4f#X>\	2.bb] 2.gg/]	4dd/	.
.	4fn>\	.	4dd#X/	.
.	4e>\	.	4ee/	.
*	*	*v	*v	*
=115	=115	=115	=115
2b> 2g> 2e>/	4e>\	2bb 2gg 2ee/	.
.	4d>\	.	.
4cc> 4g> 4e>/	4c>\	4ccc 4gg 4ee 4cc/	.
*v	*v	*	*
=116	=116	=116
!LO:TX:b:i:t=Trzy palety!	!	!
2.g> 2.d> 2.B>;<\	2.ddd 2.gg 2.dd;/	.
!!LO:LB:g=original
=117	=117	=117
*M3/4	*M3/4	*
!	!LO:TX:a:i:t=Allegro	!LO:DY:rj
8e>\L	(8eeeL 8ee\	f
8d>\J	8dddJ 8dd\)	.
8ryy	8r	.
8B'\L	8bbL 8b'\	.
8G'\	8gg 8g'\	.
8E'\J	8eeJ 8e'\	.
=118	=118	=118
(8E-X\L	(8ee-XL 8e-X\	.
8D\J)	8ddJ 8d\)	.
8r	2d^>/	.
8c#XL 8C#X\	.	.
8cn 8Cn\	.	.
8BJ 8BB\	.	.
=119	=119	=119
(8En\L	(8eenL 8en\	.
8D\J)	8ddJ 8d\)	.
8r	8r	.
8BL 8BB'\	8b'\L	.
8G 8GG'\	8g'\	.
8EJ 8EE'\	8e'\J	.
=120	=120	=120
(8E-XL 8EE-y/	(8e-X/L	.
8DJ 8DD/)	8d/J)	.
8r	2D<^/	.
(>8C#XL 8CC#X\	.	.
8Cn 8CCn\	.	.
8BBJ 8BBB\)	.	.
=121	=121	=121
4r	(<[2.d< 2.G#X< 2.F</	.
(4.BB/	.	.
8BB-X/	.	.
=122	=122	=122
*	*^	*
8AA/L	4d<] 4F#X</)	8A</L	.
!	!	!LO:SIC:v:s=8A-/	!
8AA-X/J)	.	8B-X</J	.
4ryy	4r<	4ryy	.
!	!LO:TX:a:i:t=13 pędzli	!	!
4ryy	4r<;	4ryy	.
*	*v	*v	*
=123	=123	=123
*M3/4	*M3/4	*
*^	*	*
!LO:SIC:v:s=8BB-/	!	!LO:TX:a:i:t=Tempo di Mazurka con grazia	!
8AA-X/	4ryy	(8.b-X\L	p
8r	.	.	.
.	.	16cc\Jk	.
(4d/	2B-X 2A-X\	4dd\	.
4f/)	.	8cc\L	.
.	.	8b-\J	.
=124	=124	=124	=124
4r	4ryy	8ee-X\L	.
.	.	8ff\J	.
(4e-X/	2B-X 2G\	4.gg\	.
4g/)	.	.	.
.	.	8ee-X\)	.
!!LO:PB:g=original
=125	=125	=125	=125
4r	4ryy	(8.dd\L	.
.	.	16cc#X\Jk	.
(4c#X/	2A 2G\	4a\	.
4en/)	.	4cc#\	.
=126	=126	=126	=126
*	*	*^	*
4r	4ryy	&(<8.bb/L	4dd\	.
.	.	16aa/K	.	.
(4d/	2A 2F#X\	8ee#X/	4a\)	.
.	.	8ff#X/J&)	.	.
4f#X/)	.	4r	4ryy	.
*	*	*v	*v	*
=127	=127	=127	=127
8GG#X/	4ryy	(8.a-X\L	.
8r	.	.	.
.	.	16b-X\Jk	.
(4c/	2A-X 2G-X\	4cc\	.
4e-X/)	.	8b-\L	.
.	.	8a-\J	.
=128	=128	=128	=128
4r	4ryy	8dd-X\L	.
.	.	8ee-X\J	.
(4d-X/	2A-X 2F\	4.ff\	.
4f/)	.	.	.
.	.	8dd-\)	.
=129	=129	=129	=129
4r	4ryy	(8.cc\L	.
.	.	16b\Jk	.
(4B/	2G 2F\	4g/	.
4d/)	.	4b\	.
=130	=130	=130	=130
*	*	*^	*
4r	4ryy	&(<8.aa/L	4cc\)	.
.	.	16gg/K	.	.
(4c/	2G 2E\	8dd#X/	4g\	.
.	.	8ee/J&)	.	.
4e/)	.	4r	4ryy	.
*v	*v	*	*	*
*	*v	*v	*
=131||	=131||	=131||
!	!LO:TX:a:i:t=Kilka trupich głów!	!
2.r;<	2.r;	.
!LO:TX:a:i:t=Pesante	!	!
=132	=132	=132
*	*^	*
*	*	*tremolo	*
4F#X'\	2ryy	32a-XLLL 32e-X/	ff
.	.	32c/	.
.	.	32a- 32e-/	.
.	.	32c/	.
.	.	32a- 32e-/	.
.	.	32c/	.
.	.	32a- 32e-/	.
.	.	32c/	.
4F#'\	.	32a- 32e-/	.
.	.	32c/	.
.	.	32a- 32e-/	.
.	.	32c/	.
.	.	32a- 32e-/	.
.	.	32c/	.
.	.	32a- 32e-/	.
.	.	32c/	.
8r	8ryy	32a- 32e-/	.
.	.	32c/	.
.	.	32a- 32e-/	.
.	.	32c/	.
16r	8aa-X 8ee-X 8cc/	32a- 32e-/	.
.	.	32c/	.
(16E-X\	.	32a- 32e-/	.
.	.	32c/JJJ	.
=133	=133	=133	=133
2.FF#X^/)	4r	32a-XLLL 32e-X/	.
.	.	32c/	.
.	.	32a- 32e-/	.
.	.	32c/	.
.	.	32a- 32e-/	.
.	.	32c/	.
.	.	32a- 32e-/	.
.	.	32c/	.
.	4aa-X 4ee-X 4cc/	32a- 32e-/	.
.	.	32c/	.
.	.	32a- 32e-/	.
.	.	32c/	.
.	.	32a- 32e-/	.
.	.	32c/	.
.	.	32a- 32e-/	.
.	.	32c/	.
.	4r	32a- 32e-/	.
.	.	32c/	.
.	.	32a- 32e-/	.
.	.	32c/	.
.	.	32a- 32e-/	.
.	.	32c/	.
.	.	32a- 32e-/	.
.	.	32c/JJJ	.
!!LO:LB:g=original
=134	=134	=134	=134
4F#X\	2ryy	32a-XLLL 32e-X\	.
.	.	32c\	.
.	.	32a- 32e-\	.
.	.	32c\	.
.	.	32a- 32e-\	.
.	.	32c\	.
.	.	32a- 32e-\	.
.	.	32c\	.
4F#\	.	32a- 32e-\	.
.	.	32c\	.
.	.	32a- 32e-\	.
.	.	32c\	.
.	.	32a- 32e-\	.
.	.	32c\	.
.	.	32a- 32e-\	.
.	.	32c\	.
!	!	!	!LO:DY:a
8r	4aa-X 4ee-X 4cc/	32a- 32e-\	sf
.	.	32c\	.
.	.	32a- 32e-\	.
.	.	32c\	.
16r	.	32a- 32e-\	.
.	.	32c\	.
(16E-X\	.	32a- 32e-\	.
.	.	32c\JJJ	.
*	*v	*v	*
=135	=135	=135
!	!LO:TX:b:i:t=12 węży	!
2.FF#X^;</)	32a-XLLL 32e-X;/	.
.	32c/	.
.	32a- 32e-/	.
.	32c/	.
.	32a- 32e-/	.
.	32c/	.
.	32a- 32e-/	.
.	32c/	.
.	32a- 32e-/	.
.	32c/	.
.	32a- 32e-/	.
.	32c/	.
.	32a- 32e-/	.
.	32c/	.
.	32a- 32e-/	.
.	32c/	.
.	32a- 32e-/	.
.	32c/	.
.	32a- 32e-/	.
.	32c/	.
.	32a- 32e-/	.
.	32c/	.
.	32a- 32e-/	.
.	32c/JJJ	.
=136	=136	=136
*	*^	*
8G 8GG\	4r	32gLLL 32e-X\	.
.	.	32c\	.
.	.	32g 32e-\	.
.	.	32c\	.
8r	.	32g 32e-\	.
.	.	32c\	.
.	.	32g 32e-\	.
.	.	32c\	.
4r	4ee-X'\	32g 32e-\	.
.	.	32c\	.
.	.	32g 32e-\	.
.	.	32c\	.
.	.	32g 32e-\	.
.	.	32c\	.
.	.	32g 32e-\	.
.	.	32c\	.
4r	4ff#X'\	32g 32e-\	.
.	.	32c\	.
.	.	32g 32e-\	.
.	.	32c\	.
.	.	32g 32e-\	.
.	.	32c\	.
.	.	32g 32e-\	.
.	.	32c\JJJ	.
*	*v	*v	*
=137	=137	=137
*^	*	*
*tremolo	*	*	*
32g>LLL 32e-X>\	2.r	(4.gg\	.
32c>\	.	.	.
32g> 32e->\	.	.	.
32c\	.	.	.
32g> 32e->\	.	.	.
32c>\	.	.	.
32g> 32e->\	.	.	.
32c>\	.	.	.
32g> 32e->\	.	.	.
32c>\	.	.	.
32g> 32e->\	.	.	.
32c>\	.	.	.
32g> 32e->\	.	8ff#X\	.
32c>\	.	.	.
32g> 32e->\	.	.	.
32c>\	.	.	.
32g> 32e->\	.	4ee-X\)	.
32c>\	.	.	.
32g> 32e->\	.	.	.
32c>\	.	.	.
32g> 32e->\	.	.	.
32c>\	.	.	.
32g> 32e->\	.	.	.
32c>\JJJ	.	.	.
*Xtremolo	*	*	*
*v	*v	*	*
=138	=138	=138
4r	32gLLL 32e-X\	.
.	32c\	.
.	32g 32e-\	.
.	32c\	.
.	32g 32e-\	.
.	32c\	.
.	32g 32e-\	.
.	32c\	.
4E-X\	32g 32e-\	.
.	32c\	.
.	32g 32e-\	.
.	32c\	.
.	32g 32e-\	.
.	32c\	.
.	32g 32e-\	.
.	32c\	.
4F#X\	32g 32e-\	.
.	32c\	.
.	32g 32e-\	.
.	32c\	.
.	32g 32e-\	.
.	32c\	.
.	32g 32e-\	.
.	32c\JJJ	.
=139	=139	=139
(4.G\	32gLLL 32e-X/	.
.	32c/	.
.	32g 32e-/	.
.	32c/	.
.	32g 32e-/	.
.	32c/	.
.	32g 32e-/	.
.	32c/	.
.	32g 32e-/	.
.	32c/	.
.	32g 32e-/	.
.	32c/	.
8F#X\	32g 32e-/	.
.	32c/	.
.	32g 32e-/	.
.	32c/	.
4E-X\)	32g 32e-/	.
.	32c/	.
.	32g 32e-/	.
.	32c/	.
.	32g 32e-/	.
.	32c/	.
.	32g 32e-/	.
.	32c/JJJ	.
=140	=140	=140
*	*^	*
8G 8GG\	4r	32a-XLLL 32e-X\	.
.	.	32c\	.
.	.	32a- 32e-\	.
.	.	32c\	.
8r	.	32a- 32e-\	.
.	.	32c\	.
.	.	32a- 32e-\	.
.	.	32c\	.
4r	4ee-X'/	32a- 32e-\	.
.	.	32c\	.
.	.	32a- 32e-\	.
.	.	32c\	.
.	.	32a- 32e-\	.
.	.	32c\	.
.	.	32a- 32e-\	.
.	.	32c\	.
4r	4gg'\	32a- 32e-\	.
.	.	32c\	.
.	.	32a- 32e-\	.
.	.	32c\	.
.	.	32a- 32e-\	.
.	.	32c\	.
.	.	32a- 32e-\	.
.	.	32c\JJJ	.
*	*v	*v	*
=141	=141	=141
*^	*	*
*tremolo	*	*	*
*rep	*	*	*
32a-X>LLL 32e-X>\	2.r	(4.aa-X\	.
32c>\	.	.	.
32a-> 32e->\	.	.	.
32c>\	.	.	.
32a-> 32e->\	.	.	.
32c>\	.	.	.
32a-> 32e->\	.	.	.
32c>\	.	.	.
32a-> 32e->\	.	.	.
32c>\	.	.	.
32a-> 32e->\	.	.	.
32c>\	.	.	.
32a-> 32e->\	.	8gg\	.
32c>\	.	.	.
32a-> 32e->\	.	.	.
32c>\	.	.	.
32a-> 32e->\	.	4ee-X\)	.
32c>\	.	.	.
32a-> 32e->\	.	.	.
32c>\	.	.	.
32a-> 32e->\	.	.	.
32c>\	.	.	.
32a-> 32e->\	.	.	.
32c>\JJJ	.	.	.
*Xrep	*	*	*
*Xtremolo	*	*	*
*v	*v	*	*
=142	=142	=142
4r	32a-XLLL 32e-X\	.
.	32c\	.
.	32a- 32e-\	.
.	32c\	.
.	32a- 32e-\	.
.	32c\	.
.	32a- 32e-\	.
.	32c\	.
4E-X'\	32a- 32e-\	.
.	32c\	.
.	32a- 32e-\	.
.	32c\	.
.	32a- 32e-\	.
.	32c\	.
.	32a- 32e-\	.
.	32c\	.
4G'\	32a- 32e-\	.
.	32c\	.
.	32a- 32e-\	.
.	32c\	.
.	32a- 32e-\	.
.	32c\	.
.	32a- 32e-\	.
.	32c\JJJ	.
=143	=143	=143
*	*rep	*
4.A-X\	32a-XLLL 32e-X\	.
.	32c\	.
.	32a- 32e-\	.
.	32c\	.
.	32a- 32e-\	.
.	32c\	.
.	32a- 32e-\	.
.	32c\	.
.	32a- 32e-\	.
.	32c\	.
.	32a- 32e-\	.
.	32c\	.
8G\	32a- 32e-\	.
.	32c\	.
.	32a- 32e-\	.
.	32c\	.
4E-X\	32a- 32e-\	.
.	32c\	.
.	32a- 32e-\	.
.	32c\	.
.	32a- 32e-\	.
.	32c\	.
.	32a- 32e-\	.
.	32c\JJJ	.
*	*Xrep	*
*	*Xtremolo	*
!!LO:LB:g=original
=144	=144	=144
8F#X\	8an 8e-X 8c/	.
8r	8r	.
[2FF#X/	4r	.
.	4ryy	.
!!LO:LB:g=original
=145	=145	=145
*^	*	*
!	!	!LO:TX:b:t=Kat!	!
4r	8FF#/]	4r	.
.	8ryy	.	.
4a: 4e-X: 4c: 4F#X:\	2ryy	4ccc: 4bb: 4aa: 4ee-X: 4cc:\	.
4r	.	4r	.
*v	*v	*	*
=146	=146	=146
4a: 4e-X: 4c: 4F#X:\	4ccc: 4bb: 4aa: 4ee-X: 4cc:\	.
!LO:TX:t=P:pause.color=blue:problem	!LO:TX:t=P:pause.color=blue:problem	!
4r;<	4r;	.
4G 4GG/	4gg 4ff 4b 4g\	.
=147!|:	=147!|:	=147!|:
*>B	*>B	*>B
8.cL 8.C\	8.cccL 8.ee 8.cc\	.
16eJk 16E\	16ggJk 16cc 16g\	.
!LO:TX:b:t=bis	!LO:TX:a:i:t=bis	!
4.d 4.D\	[4gg [4ff [4b [4g\	.
!	!LO:TX:b:i:t=Marsz Garsmów!	!
.	8gg]L 8ff] 8b] 8g\]	.
!LO:TX:t=P:problem=cross-measure beam	!	!
8GL 8GG\	16aaL 16a\	.
.	16bbJJ 16b\	.
=148:|!	=148:|!	=148:|!
*>C	*>C	*>C
8cJ 8C\	8ccc 8cc\	.
16r	16r	.
16A 16AA\	16fff 16ccc 16ff\	.
8.AL 8.AA\	8.fffL 8.ccc 8.ff\	.
16GK 16GG\	16eeeK 16ccc 16ee\	.
8.G 8.GG\	8.eee 8.ccc 8.ee\	.
16FJk 16FF\	16aaaJk 16ccc 16aa\	.
!!LO:LB:g=original
=149	=149	=149
8.FL 8.FF/	8.aaaL 8.ccc 8.aa\	.
16EJk 16EE/	16gggJk 16ccc 16gg\	.
8EL 8EE/	8gggL 8ccc 8gg\	.
8AJ 8AA/	8fffJ 8ccc 8ff\	.
8G 8GG/	8eee 8ccc 8ee\	.
16r	16r	.
16F 16FF/	16aaa 16ccc 16aa\	.
=150	=150	=150
8.FL 8.FF/	8.aaaL 8.ccc 8.aa\	.
16EJk 16EE/	16gggJk 16ccc 16gg\	.
8EL 8EE/	8gggL 8ccc 8gg\	.
8AJ 8AA/	8fffJ 8ccc 8ff\	.
8G 8GG/	8eee 8ccc 8ee\	.
16r	16r	.
16F 16FF/	16aaa 16ccc 16aa\	.
=151	=151	=151
*	*^	*
(16FF/LL	16aaa/LL	2.ccc\	.
16EE/	16ggg/	.	.
16FF/	16aaa/	.	.
16EE/JJ)	16ggg/JJ	.	.
*rep	*rep	*	*
(16FF/LL	16aaa/LL	.	.
16EE/	16ggg/	.	.
16FF/	16aaa/	.	.
16EE/JJ)	16ggg/JJ	.	.
*Xrep	*Xrep	*	*
*rep	*rep	*	*
(16FF/LL	16aaa/LL	.	.
16EE/	16ggg/	.	.
16FF/	16aaa/	.	.
16EE/JJ)	16ggg/JJ	.	.
*Xrep	*Xrep	*	*
*	*v	*v	*
=152	=152	=152
2.FFT/	2.aaaT\	.
32qqDD#X/LLL	(32qqfff#X\LLL	.
32qqEE/JJJ	32qqggg\JJJ)	.
=153	=153	=153
*^	*	*
4c 4C\	4ryy	4ccc 4cc\	.
4C 4CC/	4CC\	4c/	.
!	!LO:TX:t=P:problem=pojedyncza kreska taktowa	!LO:TX:t=P:problem=pojedyncza kreska taktowa	!
4r	4ryy	4r	.
*v	*v	*	*
==	==	==
*-	*-	*-
!!!system-decoration: {(s1,s2)}
!!!RDF**kern: > = above
!!!RDF**kern: < = below
!!!RDF**kern: @ = marked note, color=grey
!!!ENC: Katarzyna Serwa
!!!END: 2021-10-31
!!!ENC: Marta Lawrence
!!!END: 2021-11-05
!!!YEC: Copyright 2022 Narodowy Instytut Fryderyka Chopina (https://polishscores.org)
!!!YEM: Licence CC BY 4.0 (https://creativecommons.org/licenses/by/4.0)
